svg/sp-logo.svg

<svg xmlns="http://www.w3.org/2000/svg" xml:space="preserve" width="167" height="152">
    <path stroke-linecap="round" d="M78 3c3.33 3.76 6 10.77 13.11 17.89C109.63 39.41 134.45 52.15 157 65c-1.67 13.97 1.85 18.23-2.98 34.09-1.88 6.18-4.22 12.24-7.33 17.91-2 3.64-5.06 6.86-5.69 11l-6 5c1.87-5.65 5.09-8.77 7.61-14 4.01-8.34 5.5-16.91 3.35-26-2.63-11.06-9.04-14.14-17.96-19.28l-12-7.17L90 51c-2.39-1.44-8.87-5.85-11.42-5.72-2.08.11-6.66 3.17-8.58 4.32L52 60.28 30 73.4c-3.84 2.31-10.07 5.78-12.9 9.12-6.97 8.21-7.71 20.19-4.53 30.14 2.1 6.58 6.09 12.36 9.43 18.34-6.34-3.65-12.84-17.09-15.48-24C2.75 97.1.58 87.64.45 77c-.04-3.29.08-8.73 1.86-11.62 1.34-2.17 4.51-3.56 6.69-4.8l16-9.26c13.96-8.7 28.07-17.46 39.73-29.19C71.02 15.8 75.45 11.93 78 3Zm0 60h2c6.87 13.34 22.41 23.04 35 30.64 2.97 1.8 13.42 7.21 14.66 9.7.74 1.5.5 3.07.56 4.66v9c-.79 8.15-5.24 20.41-11.22 26 1.55-3.65 3.48-7.54 4.25-11.42 3.7-18.45-13.23-24.01-26.25-31.78-3.88-2.32-15-10.12-19-9.59-2.75.36-10.3 5.42-13 7.11-9.88 6.15-27.65 12.69-30.82 24.68-2.44 9.27 3.47 14.49 2.82 20-4.02-6.72-8.02-15.2-9.29-23L27 102c15.71-6.77 43.47-23.66 51-39Z" style="stroke:#fff;stroke-width:1;stroke-dasharray:none;stroke-linecap:butt;stroke-dashoffset:0;stroke-linejoin:miter;stroke-miterlimit:4;fill:#fff;fill-rule:nonzero;opacity:1" transform="matrix(1.06 0 0 1.08 .057 -2.7)"/>
</svg>

<?xml version="1.0" encoding="UTF-8" standalone="no" ?>
<!DOCTYPE svg PUBLIC "-//W3C//DTD SVG 1.1//EN" "http://www.w3.org/Graphics/SVG/1.1/DTD/svg11.dtd">
<svg xmlns="http://www.w3.org/2000/svg" xmlns:xlink="http://www.w3.org/1999/xlink" version="1.1" width="167" height="152" viewBox="0 0 167 152" xml:space="preserve">
<desc>Created with Fabric.js 3.6.3</desc>
<defs>
</defs>
<g transform="matrix(1.06 0 0 1.08 83.5 76.14)"  >
<path style="stroke: rgb(255,255,255); stroke-width: 1; stroke-dasharray: none; stroke-linecap: butt; stroke-dashoffset: 0; stroke-linejoin: miter; stroke-miterlimit: 4; fill: rgb(255,255,255); fill-rule: nonzero; opacity: 1;"  transform=" translate(-78.72, -73)" d="M 78 3 C 81.33 6.76 84 13.77 91.11 20.89 C 109.63 39.41 134.45 52.15 157 65 C 155.33 78.97 158.85 83.23 154.02 99.09 C 152.14 105.27 149.8 111.33 146.69 117 C 144.69 120.64 141.63 123.86 141 128 C 141 128 135 133 135 133 C 136.87 127.35 140.09 124.23 142.61 119 C 146.62 110.66 148.11 102.09 145.96 93 C 143.33 81.94 136.92 78.86 128 73.72 C 128 73.72 116 66.55 116 66.55 C 116 66.55 90 51 90 51 C 87.61 49.56 81.13 45.15 78.58 45.28 C 76.5 45.39 71.92 48.45 70 49.6 C 70 49.6 52 60.28 52 60.28 C 52 60.28 30 73.4 30 73.4 C 26.16 75.71 19.93 79.18 17.1 82.52 C 10.13 90.73 9.39 102.71 12.57 112.66 C 14.67 119.24 18.66 125.02 22 131 C 15.66 127.35 9.16 113.91 6.52 107 C 2.75 97.1 0.58 87.64 0.45 77 C 0.41 73.71 0.53 68.27 2.31 65.38 C 3.65 63.21 6.82 61.82 9 60.58 C 9 60.58 25 51.32 25 51.32 C 38.96 42.62 53.07 33.86 64.73 22.13 C 71.02 15.8 75.45 11.93 78 3 Z M 78 63 C 78 63 80 63 80 63 C 86.87 76.34 102.41 86.04 115 93.64 C 117.97 95.44 128.42 100.85 129.66 103.34 C 130.4 104.84 130.16 106.41 130.22 108 C 130.22 108 130.22 117 130.22 117 C 129.43 125.15 124.98 137.41 119 143 C 120.55 139.35 122.48 135.46 123.25 131.58 C 126.95 113.13 110.02 107.57 97 99.8 C 93.12 97.48 82 89.68 78 90.21 C 75.25 90.57 67.7 95.63 65 97.32 C 55.12 103.47 37.35 110.01 34.18 122 C 31.74 131.27 37.65 136.49 37 142 C 32.98 135.28 28.98 126.8 27.71 119 C 27.71 119 27 102 27 102 C 42.71 95.23 70.47 78.34 78 63 Z" stroke-linecap="round" />
</g>
</svg>
